vendor/shopware/storefront/Resources/app/storefront/dist/assets/icon/default/editor-underline.svg

<svg xmlns="http://www.w3.org/2000/svg" width="12" height="12" viewBox="0 0 12 12">
  <path fill="#758CA3" fill-rule="evenodd" d="M8,5 L8,4 L8,1 C8,0.44771525 8.44771525,5.77315973e-15 9,5.77315973e-15 C9.55228475,5.77315973e-15 10,0.44771525 10,1 L10,4.5 L10,8 C10,8.55228475 9.55228475,9 9,9 C8.59463145,9 8.24559799,8.75880079 8.08858707,8.41208979 C7.48067226,8.78499772 6.76544437,9 6,9 C3.790861,9 2,7.209139 2,5 L2,1 C2,0.44771525 2.44771525,3.41948692e-14 3,3.41948692e-14 C3.55228475,3.41948692e-14 4,0.44771525 4,1 L4,5 C4,6.1045695 4.8954305,7 6,7 C7.1045695,7 8,6.1045695 8,5 Z M2,10 L10,10 C10.5522847,10 11,10.4477153 11,11 C11,11.5522847 10.5522847,12 10,12 L2,12 C1.44771525,12 1,11.5522847 1,11 C1,10.4477153 1.44771525,10 2,10 Z"/>
</svg>

<svg xmlns="http://www.w3.org/2000/svg" width="12" height="12" viewBox="0 0 12 12"><path fill="#758CA3" fill-rule="evenodd" d="M8 5V1c0-.5523.4477-1 1-1s1 .4477 1 1v7c0 .5523-.4477 1-1 1a1.0002 1.0002 0 0 1-.9114-.588A3.9813 3.9813 0 0 1 6 9C3.7909 9 2 7.2091 2 5V1c0-.5523.4477-1 1-1s1 .4477 1 1v4c0 1.1046.8954 2 2 2s2-.8954 2-2zm-6 5h8c.5523 0 1 .4477 1 1s-.4477 1-1 1H2c-.5523 0-1-.4477-1-1s.4477-1 1-1z"/></svg>
